X: 4
T: Marche des Trois Rivi\`eres
I: RJ R-160
M: C|
K: D
A |\
"D"A3f e2d2 | (A4 A)B1/2 cB1/2 | A3f e2d2 | (A4 A)B1/2 cB1/2 || "Em"A3B c2d2 |
"A"e6 aa |[1 "Em"a2e2 "A7"a2e2 | "D"(f4 "A"f3) :|2 "A"a2g2 B2c2 | "D"ddAF "F#"D2 ||
|: FF |\
"Bm"F2B2 B2FF | F2B2 B2FF | F2B2 B2F2 | "Em"A2G2 G2AA || "A"A2c2 c2AA |
"A"A2c2 c3 [1 E | "A"E3d "A/G"d2c2 | "F#m"B2c2 "/A"A2 :|[2 B | "A"B2A2 G2E2 | "D"DDFA d3 :|\
["trans." B | "A"B2A2 G2E2 | "D"D2 |]
